X:1
T:Seeking to Save
T:Seeking to Save
T:Philip Paul Bliss
T:Philip Paul Bliss, 1876
T:Public Domain Courtesy of the Cyber Hymnal™
C:Philip Paul Bliss
Z:Public Domain
Z:Courtesy of the Cyber Hymnal™
%%score ( 1 2 ) ( 3 4 )
L:1/8
Q:1/4=115
M:6/8
K:Ab
V:1 treble 
V:2 treble 
V:3 bass 
V:4 bass 
V:1
 [Ec]2 [=D=B] [Ec]2 [_DG] | [CA]3 [CE]3 | [DG]2 [C^F] [DG]2 [CA] | [EB]6 | %4
w: 1.~Ten- der- ly the|Shep- herd,|O’er the mount- ains|cold,|
w: 2.~Pa- tient- ly the|own- er,|Seeks with ear- nest|care,|
w: 3.~Lov- ing- ly the|Fa- ther|Sends the news a-|round,|
 [Ec]2 [=D=B] [Ec]2 [_DG] | [CA]3 [CE]3 | G3 [CA]2 [DB] | [CA]6 ||"^Refrain" [Ae]3 [Ac]2 [Ac] | %9
w: Goes to bring the|lost one|Back to the|fold.||
w: In the dust and|dark- ness|Her trea- sure|rare.|Seek- ing to|
w: “He once dead now|liv- eth—|Once lost is|found.”||
 (e3 c3) | [Ac]3 [FA]2 [FA] | ([A-c]3 [FA]3) | [=DB]3 [DB]2 [Dc] | (B2 A) (G2 F) | E3 [B,E]2 [CE] | %15
w: ||||||
w: save, *|seek- ing to|save, *|Lost one, ’tis|Je- * sus, *|Seek- ing to|
w: ||||||
 [DE]6 | (E2 A) [CA]2 [DB] | [CA]6 | ([CE]2 [Ec]) [Ec]2 [Fd] | [Ec]6 | [_Ge]3 [Gc]2 [GA] | %21
w: ||||||
w: save.|Seek- * ing to|save,|seek- * ing to|save,|Lost one, ’tis|
w: ||||||
 [FA]3 F3 | G3 [CA]2 [DB] | [CA]6 |] %24
w: |||
w: Je- sus,|Seek- ing to|save.|
w: |||
V:2
 x6 | x6 | x6 | x6 | x6 | x6 | (E2 D) x3 | x6 || x6 | A6 | x6 | x6 | x6 | =D3 D3 | E3 x3 | x6 | %16
 C3 x3 | x6 | x6 | x6 | x6 | x3 F3 | (E2 D) x3 | x6 |] %24
V:3
 [A,,A,]2 [A,,A,] [A,,A,]2 [A,,A,] | [A,,A,]3 [A,,A,]3 | [E,B,]2 [E,=A,] [E,B,]2 [E,_A,] | %3
 [E,G,]6 | [A,,A,]2 [A,,A,] [A,,A,]2 [A,,A,] | [A,,A,]3 [A,,A,]3 | [E,B,]3 [E,A,]2 [E,G,] | %7
 [A,,A,]6 || [A,C]3 A,2 A, | ([A,-C]3 A,3) | [F,C]3 [F,C]2 [F,C] | [F,C]6 | %12
 [B,,B,]3 [B,,B,]2 [B,,B,] | [B,,B,]3 (B,2 A,) | [E,G,]3 [E,G,]2 [E,A,] | [E,B,]6 | %16
 (A,2 E,) [A,,E,]2 [A,,E,] | [A,,E,]6 | A,3 A,2 A, | A,6 | [A,C]3 [A,E]2 [A,C] | [D,D]3 [D,D]3 | %22
 [E,B,]3 [E,A,]2 E, | [A,,E,]6 |] %24
V:4
 x6 | x6 | x6 | x6 | x6 | x6 | x6 | x6 || x3 A,2 A, | x3 A,3 | x6 | x6 | x6 | x3 B,,3 | x6 | x6 | %16
 A,,3 x3 | x6 | A,3 A,2 A, | A,6 | x6 | x6 | x5 E, | x6 |] %24

